Numix/32/status/weather-showers.svg

<?xml version="1.0" encoding="UTF-8" standalone="yes"?>
<svg xmlns="http://www.w3.org/2000/svg" xmlns:xlink="http://www.w3.org/1999/xlink" width="32px" height="32px" viewBox="0 0 24 24" version="1.1">
  <g id="surface1">
    <path style=" stroke:none;fill-rule:nonzero;fill:rgb(92.54902%,92.54902%,92.54902%);fill-opacity:1;" d="M 8.738281 5 C 8.5625 5 8.375 5.007812 8.1875 5.03125 C 5.15625 5.421875 5.25 8.023438 5.25 8.023438 C 4.007812 8.234375 3 9.3125 3 10.445312 C 3 11.578125 4.292969 12.582031 5.378906 12.875 C 6.023438 13.046875 6.871094 12.875 6.871094 12.875 C 7.253906 13.546875 8.519531 14 9.398438 14 C 10.835938 14 12.316406 13.523438 12.65625 12.875 C 12.65625 12.875 18.609375 13.351562 19.847656 12.875 C 21.648438 12.179688 21.085938 10.011719 19.890625 9.28125 C 18.691406 8.546875 17.125 9.058594 17.125 9.058594 C 17.125 9.058594 17.117188 7.566406 15.425781 6.851562 C 13.734375 6.140625 12.304688 7.71875 12.304688 7.71875 C 12.304688 7.71875 11.359375 5.015625 8.738281 5 Z M 8.738281 5 "/>
    <path style=" stroke:none;fill-rule:nonzero;fill:rgb(92.54902%,92.54902%,92.54902%);fill-opacity:1;" d="M 6.148438 13.644531 C 5.257812 14.085938 3.105469 15.699219 3.5625 16.304688 C 4.019531 16.914062 5.71875 14.578125 6.148438 13.644531 Z M 19.75 13.933594 C 18.859375 14.375 16.699219 15.984375 17.15625 16.589844 C 17.613281 17.195312 19.316406 14.867188 19.75 13.933594 Z M 16.316406 14.070312 C 15.421875 14.511719 13.265625 16.128906 13.722656 16.734375 C 14.179688 17.339844 15.882812 15.007812 16.316406 14.070312 Z M 13.226562 14.515625 C 12.328125 14.957031 10.171875 16.574219 10.632812 17.179688 C 11.085938 17.789062 12.789062 15.453125 13.226562 14.515625 Z M 9.574219 14.925781 C 8.679688 15.363281 6.523438 16.980469 6.980469 17.585938 C 7.4375 18.195312 9.140625 15.859375 9.574219 14.925781 Z M 6.257812 16.941406 C 5.363281 17.378906 3.203125 18.996094 3.664062 19.601562 C 4.117188 20.210938 5.820312 17.875 6.257812 16.941406 Z M 16.15625 17.210938 C 15.257812 17.652344 13.101562 19.269531 13.5625 19.875 C 14.015625 20.480469 15.71875 18.148438 16.15625 17.210938 Z M 12.609375 17.960938 C 11.71875 18.398438 9.558594 20.015625 10.015625 20.621094 C 10.472656 21.226562 12.175781 18.890625 12.609375 17.960938 Z M 17.9375 18.5 C 17.046875 18.9375 14.890625 20.554688 15.34375 21.164062 C 15.800781 21.765625 17.503906 19.433594 17.9375 18.5 Z M 9.160156 18.738281 C 8.265625 19.179688 6.109375 20.796875 6.566406 21.398438 C 7.023438 22.007812 8.726562 19.671875 9.160156 18.738281 Z M 9.160156 18.738281 "/>
  </g>
</svg>

<svg xmlns="http://www.w3.org/2000/svg" width="32" height="32" viewBox="0 0 24 24">
 <g>
  <path d="m 8.738 5 c -0.176 0 -0.363 0.008 -0.551 0.031 c -3.03 0.391 -2.938 2.992 -2.938 2.992 c -1.242 0.211 -2.25 1.289 -2.25 2.422 c 0 1.133 1.293 2.137 2.379 2.43 c 0.645 0.172 1.492 0 1.492 0 c 0.383 0.672 1.648 1.125 2.527 1.125 c 1.438 0 2.918 -0.477 3.258 -1.125 c 0 0 5.953 0.477 7.191 0 c 1.801 -0.695 1.238 -2.863 0.043 -3.594 c -1.199 -0.734 -2.766 -0.223 -2.766 -0.223 c 0 0 -0.008 -1.492 -1.699 -2.207 c -1.691 -0.711 -3.121 0.867 -3.121 0.867 c 0 0 -0.945 -2.703 -3.566 -2.719 m 0 0" style="fill:#ececec;fill-opacity:1;stroke:none;fill-rule:nonzero"/>
  <path d="m 6.148 13.645 c -0.891 0.441 -3.043 2.055 -2.586 2.66 c 0.457 0.609 2.156 -1.727 2.586 -2.66 m 13.602 0.289 c -0.891 0.441 -3.051 2.051 -2.594 2.656 c 0.457 0.605 2.16 -1.723 2.594 -2.656 m -3.434 0.137 c -0.895 0.441 -3.051 2.059 -2.594 2.664 c 0.457 0.605 2.16 -1.727 2.594 -2.664 m -3.09 0.445 c -0.898 0.441 -3.055 2.059 -2.594 2.664 c 0.453 0.609 2.156 -1.727 2.594 -2.664 m -3.652 0.41 c -0.895 0.438 -3.051 2.055 -2.594 2.66 c 0.457 0.609 2.16 -1.727 2.594 -2.66 m -3.316 2.02 c -0.895 0.438 -3.055 2.055 -2.594 2.66 c 0.453 0.609 2.156 -1.727 2.594 -2.66 m 9.898 0.27 c -0.898 0.441 -3.055 2.059 -2.594 2.664 c 0.453 0.605 2.156 -1.727 2.594 -2.664 m -3.547 0.75 c -0.891 0.438 -3.051 2.055 -2.594 2.66 c 0.457 0.605 2.16 -1.73 2.594 -2.66 m 5.328 0.539 c -0.891 0.438 -3.047 2.055 -2.594 2.664 c 0.457 0.602 2.16 -1.73 2.594 -2.664 m -8.777 0.238 c -0.895 0.441 -3.051 2.059 -2.594 2.66 c 0.457 0.609 2.16 -1.727 2.594 -2.66 m 0 0" style="fill:#ececec;fill-opacity:1;stroke:none;fill-rule:nonzero"/>
 </g>
</svg>
